local/share/icons/dracula-icons-main/scalable/apps/corebird.svg

<?xml version="1.0" encoding="UTF-8"?>
<svg xmlns="http://www.w3.org/2000/svg" xmlns:xlink="http://www.w3.org/1999/xlink" width="64" height="64" viewBox="0 0 64 64">
<path fill-rule="nonzero" fill="rgb(21.960784%, 32.54902%, 45.098039%)" fill-opacity="1" d="M 59 32 C 59 46.910156 46.910156 59 32 59 C 17.089844 59 5 46.910156 5 32 C 5 17.089844 17.089844 5 32 5 C 46.910156 5 59 17.089844 59 32 Z M 59 32 "/>
<path fill-rule="nonzero" fill="rgb(38.823529%, 45.098039%, 74.901961%)" fill-opacity="1" d="M 14.347656 24.175781 C 13.097656 26.617188 12.441406 29.292969 12.433594 32 C 12.433594 42.085938 21.195312 50.261719 32 50.261719 C 42.804688 50.261719 51.566406 42.085938 51.566406 32 C 51.558594 29.292969 50.90625 26.617188 49.652344 24.175781 L 32 22.871094 Z M 14.347656 24.175781 "/>
<path fill-rule="nonzero" fill="rgb(93.333333%, 29.411765%, 37.254902%)" fill-opacity="1" d="M 32 13.738281 C 24.453125 13.75 17.582031 17.808594 14.347656 24.175781 L 49.652344 24.175781 C 46.417969 17.808594 39.546875 13.746094 32 13.738281 Z M 32 13.738281 "/>
<path fill-rule="nonzero" fill="rgb(58.431373%, 18.431373%, 35.686275%)" fill-opacity="1" d="M 32.800781 13.882812 L 32.800781 13.886719 C 31.007812 13.886719 29.457031 14.496094 28.679688 15.398438 C 27.980469 15.167969 27.183594 15.054688 26.339844 15.054688 C 24.144531 15.054688 22.296875 15.914062 21.609375 17.128906 C 21.492188 17.007812 21.335938 16.910156 21.191406 16.804688 C 20.929688 16.972656 20.671875 17.144531 20.417969 17.324219 C 21.027344 17.550781 21.542969 17.871094 21.925781 18.273438 C 22.617188 17.058594 24.46875 16.195312 26.660156 16.195312 C 27.507812 16.195312 28.296875 16.316406 29 16.542969 C 29.773438 15.640625 31.328125 15.027344 33.117188 15.027344 C 35.222656 15.027344 36.996094 15.886719 37.558594 17.046875 C 38.179688 17.011719 38.859375 17.035156 39.394531 17.179688 C 40.242188 17.410156 40.972656 18.191406 41.363281 19.121094 C 41.632812 19.769531 41.6875 20.429688 41.554688 21.007812 C 41.714844 21.097656 41.863281 21.191406 42 21.296875 C 42.035156 21.273438 42.089844 21.234375 42.105469 21.21875 C 42.550781 20.503906 42.617188 19.523438 42.210938 18.5625 C 42.019531 18.101562 41.753906 17.691406 41.414062 17.367188 C 41.835938 17.199219 42.289062 17.09375 42.769531 17.046875 C 42.957031 17.050781 43.144531 17.09375 43.332031 17.132812 C 42.761719 16.757812 42.171875 16.410156 41.5625 16.09375 C 41.171875 16.195312 40.792969 16.320312 40.457031 16.511719 C 39.777344 16.125 38.753906 15.875 37.613281 15.875 C 37.492188 15.875 37.367188 15.894531 37.242188 15.902344 C 36.671875 14.734375 34.898438 13.882812 32.800781 13.882812 Z M 33.589844 18.007812 C 32.324219 18.015625 31.203125 18.507812 30.675781 19.414062 C 30.59375 19.542969 30.53125 19.675781 30.488281 19.8125 L 30.488281 19.839844 L 30.167969 20.980469 C 30.21875 20.84375 30.277344 20.714844 30.355469 20.582031 C 31.203125 19.132812 33.578125 18.714844 35.644531 19.679688 C 36.332031 19.996094 36.890625 20.425781 37.304688 20.914062 C 37.527344 20.804688 37.761719 20.714844 38.007812 20.640625 C 37.460938 19.773438 36.714844 18.929688 35.9375 18.535156 C 35.164062 18.175781 34.351562 18.003906 33.589844 18.007812 Z M 23.066406 18.511719 C 22.464844 18.507812 21.824219 18.621094 21.207031 18.855469 C 20.628906 19.074219 20.144531 19.382812 19.746094 19.734375 C 18.933594 19.574219 18.140625 19.636719 17.453125 19.847656 C 16.902344 20.421875 16.390625 21.03125 15.917969 21.667969 C 16.984375 20.683594 18.957031 20.5 20.726562 21.328125 C 21.203125 21.550781 21.613281 21.824219 21.964844 22.128906 C 22.152344 21.855469 22.402344 21.613281 22.695312 21.417969 C 22.277344 20.9375 21.726562 20.507812 21.046875 20.1875 C 21.316406 20.015625 21.625 19.855469 21.949219 19.734375 C 23.1875 19.265625 24.5 19.308594 25.460938 19.734375 L 25.460938 19.707031 L 24.714844 18.855469 C 24.238281 18.644531 23.667969 18.511719 23.070312 18.511719 Z M 46.28125 19.550781 C 46.304688 19.601562 46.332031 19.652344 46.351562 19.707031 C 46.859375 20.925781 46.789062 22.171875 46.21875 23.082031 L 47.308594 22.421875 C 47.53125 22.058594 47.671875 21.636719 47.738281 21.191406 C 47.289062 20.617188 46.800781 20.070312 46.28125 19.550781 Z M 46.28125 19.550781 "/>
<path fill-rule="nonzero" fill="rgb(100%, 100%, 100%)" fill-opacity="1" d="M 25.480469 20.261719 C 21.15625 20.261719 17.652344 24.058594 17.652344 28.738281 C 17.652344 33.421875 21.15625 37.21875 25.480469 37.21875 L 38.523438 37.21875 C 42.84375 37.21875 46.347656 33.421875 46.347656 28.738281 C 46.347656 24.058594 42.84375 20.261719 38.523438 20.261719 C 35.898438 20.261719 33.449219 21.691406 32 24.066406 C 30.554688 21.691406 28.105469 20.261719 25.480469 20.261719 Z M 25.480469 20.261719 "/>
<path fill-rule="nonzero" fill="rgb(100%, 81.960784%, 3.921569%)" fill-opacity="1" d="M 32 33.304688 C 29.4375 33.304688 26.785156 34.609375 26.785156 37.21875 C 26.785156 39.824219 30.992188 46.347656 32 46.347656 C 33.011719 46.347656 37.21875 39.824219 37.21875 37.21875 C 37.21875 34.609375 34.566406 33.300781 32 33.304688 Z M 32 33.304688 "/>
<path fill-rule="nonzero" fill="rgb(1.176471%, 29.803922%, 46.666667%)" fill-opacity="1" d="M 28.089844 26.78125 C 26.648438 26.78125 25.480469 27.949219 25.480469 29.390625 C 25.480469 30.832031 26.648438 32 28.089844 32 C 29.527344 32 30.695312 30.832031 30.695312 29.390625 C 30.695312 27.949219 29.527344 26.78125 28.089844 26.78125 Z M 35.914062 26.78125 C 34.472656 26.78125 33.304688 27.949219 33.304688 29.390625 C 33.304688 30.832031 34.472656 32 35.914062 32 C 37.355469 32 38.523438 30.832031 38.523438 29.390625 C 38.523438 27.949219 37.355469 26.78125 35.914062 26.78125 Z M 27.4375 28.085938 C 27.796875 28.085938 28.089844 28.378906 28.089844 28.738281 C 28.089844 29.101562 27.796875 29.390625 27.4375 29.390625 C 27.074219 29.390625 26.785156 29.101562 26.785156 28.738281 C 26.785156 28.378906 27.074219 28.085938 27.4375 28.085938 Z M 35.261719 28.085938 C 35.621094 28.085938 35.914062 28.378906 35.914062 28.738281 C 35.914062 29.101562 35.621094 29.390625 35.261719 29.390625 C 34.902344 29.390625 34.609375 29.101562 34.609375 28.738281 C 34.609375 28.378906 34.902344 28.085938 35.261719 28.085938 Z M 35.261719 28.085938 "/>
</svg>

<svg width="64" height="64" version="1.1" viewBox="0 0 64 64" xmlns="http://www.w3.org/2000/svg">
 <circle cx="32" cy="32" r="27" fill="#385373" stroke-width="1.174"/>
 <path d="m14.348 24.174c-1.2518 2.444-1.9053 5.1172-1.9132 7.8261 0 10.085 8.7596 18.261 19.565 18.261 10.806 0 19.565-8.1757 19.565-18.261-0.0072-2.7086-0.65976-5.382-1.9106-7.8261l-17.654-1.3043z" fill="#6373bf" stroke-width="1.2601"/>
 <path d="m32 13.739a19.565 18.261 0 0 0-17.652 10.435h35.306a19.565 18.261 0 0 0-17.654-10.435z" fill="#ee4b5f" stroke-width="1.2601"/>
 <path d="m32.8 13.881v0.0051c-1.7923 0-3.3411 0.60985-4.1194 1.5133-0.70094-0.22968-1.4974-0.34392-2.3412-0.34392-2.1947 0-4.0418 0.85896-4.7309 2.0737-0.11712-0.12206-0.27446-0.21819-0.4178-0.32354a19.565 18.261 0 0 0-0.77191 0.51715c0.60744 0.22769 1.124 0.54936 1.5081 0.95024 0.68904-1.2147 2.542-2.0763 4.7333-2.0763 0.84725 0 1.6377 0.11849 2.3387 0.34646 0.7741-0.90085 2.3305-1.5158 4.1194-1.5158 2.1053 0 3.8773 0.85906 4.4404 2.0202 0.61928-0.03488 1.2992-0.01213 1.8342 0.13247 0.85066 0.23053 1.5788 1.0098 1.9693 1.9413 0.27103 0.64895 0.32429 1.307 0.19362 1.8878a3.7518 2.8357 0 0 1 0.44583 0.28787c0.03331-0.0246 0.08628-0.06442 0.10445-0.07642 0.4449-0.71626 0.51277-1.6984 0.10445-2.6597-0.19225-0.46021-0.45797-0.86815-0.79739-1.1948 0.42363-0.16673 0.87723-0.27335 1.3553-0.32099 0.18882 0.0044 0.37522 0.04894 0.56301 0.08917a19.565 18.261 0 0 0-1.768-1.0394c-0.39324 0.10063-0.77139 0.22688-1.1056 0.4178-0.68223-0.38961-1.7023-0.63689-2.8456-0.63689-0.12164 0-0.2469 0.02037-0.37195 0.02547-0.56739-1.1663-2.3409-2.0202-4.4404-2.0202zm0.78974 4.1271c-1.2674 0.0072-2.3849 0.5003-2.9144 1.4062-0.08166 0.1293-0.14598 0.26046-0.18852 0.39742v0.02802l-0.31844 1.1413c0.0519-0.13696 0.11026-0.26556 0.18597-0.39742 0.85066-1.4495 3.2225-1.8682 5.2912-0.90438 0.68592 0.3183 1.2439 0.74799 1.6585 1.233a3.7518 2.8357 0 0 1 0.70568-0.27004c-0.54792-0.86906-1.2946-1.7126-2.0712-2.1068-0.7739-0.36047-1.5884-0.53164-2.3489-0.52735zm-10.524 0.50186c-0.59915-2e-3 -1.2396 0.11232-1.8571 0.34646-0.57845 0.21777-1.0625 0.52504-1.4623 0.87637-0.81384-0.15864-1.6062-0.09779-2.2928 0.11464a19.565 18.261 0 0 0-1.5337 1.8215c1.0662-0.98436 3.0368-1.1688 4.8072-0.34137 0.47658 0.22203 0.88698 0.49697 1.2381 0.80249a2.8607 2.4697 0 0 1 0.73115-0.71076c-0.41892-0.48249-0.97066-0.91329-1.6508-1.233 0.27136-0.17013 0.58028-0.32927 0.90438-0.45347 1.2369-0.46616 2.551-0.42534 3.5105 0v-0.02547l-0.74388-0.85088c-0.48008-0.21205-1.0504-0.34319-1.6457-0.34646h-0.0051zm23.216 1.0394c0.02225 0.054 0.04867 0.10484 0.07133 0.15794 0.50529 1.2173 0.43407 2.4661-0.13247 3.3755l1.0878-0.66236c0.22403-0.36129 0.36283-0.78186 0.43054-1.2279a19.565 18.261 0 0 0-1.4572-1.6432z" fill="#952f5b" stroke-width=".85066"/>
 <path d="m25.48 20.261c-4.3222 0-7.8261 3.7958-7.8261 8.4783s3.5039 8.4783 7.8261 8.4783h13.043c4.3222 0 7.8261-3.7958 7.8261-8.4783s-3.5039-8.4783-7.8261-8.4783c-2.6251 0.0026-5.0743 1.431-6.5217 3.8035-1.4474-2.3726-3.8966-3.8009-6.5217-3.8035z" fill="#ffffff" stroke-width="1.3044" style="paint-order:normal"/>
 <path d="m32.001 33.304c-2.5654 0.0026-5.2174 1.3043-5.2174 3.913s4.2072 9.1304 5.2174 9.1304 5.2174-6.5217 5.2174-9.1304-2.652-3.9157-5.2174-3.913z" fill="#ffd10a" stroke-width=".78472"/>
 <path d="m28.088 26.783a2.6087 2.6087 0 0 0-2.6087 2.6087 2.6087 2.6087 0 0 0 2.6087 2.6087 2.6087 2.6087 0 0 0 2.6087-2.6087 2.6087 2.6087 0 0 0-2.6087-2.6087zm7.8261 0a2.6087 2.6087 0 0 0-2.6087 2.6087 2.6087 2.6087 0 0 0 2.6087 2.6087 2.6087 2.6087 0 0 0 2.6087-2.6087 2.6087 2.6087 0 0 0-2.6087-2.6087zm-8.4783 1.3043a0.65217 0.65217 0 0 1 0.65217 0.65217 0.65217 0.65217 0 0 1-0.65217 0.65217 0.65217 0.65217 0 0 1-0.65217-0.65217 0.65217 0.65217 0 0 1 0.65217-0.65217zm7.8261 0a0.65217 0.65217 0 0 1 0.65217 0.65217 0.65217 0.65217 0 0 1-0.65217 0.65217 0.65217 0.65217 0 0 1-0.65217-0.65217 0.65217 0.65217 0 0 1 0.65217-0.65217z" fill="#034c77" stroke-width="1.3044" style="paint-order:normal"/>
</svg>
